X: 92
T: Monferrina
C: J-35
C: Italian
M: 6/8
Z: Transcribed to abc by Mary Lou Knack
R: jig
K: A
e| "A"aga eAc| e3 "D"f2e| "E"dcB c2e| "A"cec A2e|
   "A"aga eAc| e3 "D"f2e| "E"gfe dcB| "A"A3- A2:|
|:\
a| "E"gfe efg| "A"f2e efg| "E"fed dcB| "A"c3- c2a|
   "E"gfe efg| "A"f2e efg| "E"fed dcB|1 "A"A3- A2:|2 "A"A2e ef|]
|:\
e| "A"c2e efe| "E"d2e efe| gfe gfe| "A"f2e efe|
   "A"c2e efe| "E"d2e efe| gfe dcB|1 "A"A2e ef:|2 "A"A3- A2|]
%%text 9/1/98.  Traditional Italian 48-bar jig.  From Jake Walton.
